X:70
T:Beggar Girl,The. TJD.70
M:3/4
L:1/4
Q:3/4=60
S:T.J.Dixon MS1, Lincolnshire, early 19thC
R:waltz
A:Lincolnshire, Holton le Moor
Z:vmp.R.Greig2010
K:G
dcB|dcB|AGA|Bcd|d>cB|d>cB|AGA|G3:|!
|:DGB|DAc|DcB|BAG|DG=F|E2c|BAG|!
d/e/d/c/B/A/|d>cB|d>cB|AGA|B>cd|!
d>cB|efg|B>cA|G3:|]

